X:1
T:Title
%%score 1 { 2 | 3 }
L:1/8
Q:1/4=90
M:6/8
K:F
V:1 treble nm="Grand Piano, Soprano"
V:2 bass nm="Choir Pad, Plumas, 98.98.88.98"
V:3 bass 
V:1
 C[CA]>[CA] [CA][DB][DF] | [^CG] [=CA]2- [CA] [CF]2 | [FA][Fc]>[Fc] [Fc][DB][DF] | %3
w: By~Peter~Philip~Bilhorn,~1894 * * * * *|||
 [^CG] [=CA]2- [CA]2- [CA]/ z/ | [FA][EG]>[EG] [EG][EB][FA] | [EG] [FA]2- [FA] [Fc]2 | %6
w: |||
 [Fc][F=B]>[FB] [FB][FB][FA] | [F=B] [Ec]2- [Ec]2- [Ec]/ z/ | [Fc] [Fd]2 [Fd] [Fd]2 | %9
w: |||
 [Fd]/[Fd]/ [Fc]2- [Fc] [FA]2 | [EG][DF]>[DF] [DF][FA][EG] | [DF] [EG]2- [EG]2- [EG]/ z/ | %12
w: |||
 [GB][FA]>[FA] [FA][EB][EB] | [GB] [Fc]2- [Fc] [Fd]2 | [Fd][Fc]>[FB] [FA][EG]<[FA] | %15
w: |||
 [CG] [CF]2- [CF]3- | [CF]3 z3 |] %17
w: ||
V:2
 A,F,>F, F,F,F, | F, F,2- F,/ z/ A,2 | CA,>A, A,F,F, | F, F,2- F,2- F,/ z/ | CC>C CCC | %5
 C C2- C[K:bass] A,2 | A,G,>D D[K:treble]DD | D C2- C2- C/ z/ | A, B,2 B, B,2 | B,/B,/ A,2- A, C2 | %10
 B,A,>A, A,=B,B, | =B,[K:treble] C2- C2- C/ z/ | CC>C CCC | C C2- C[K:bass] B,2 | B,A,>D CC<C | %15
 B, A,2- A,3- | A,3 z3 |] %17
V:3
 .F,3 z3 | z3 z F,2 | F,F,>F, .F,3 | z6 | F,C,>C, C,C,C, | C, F,2- F, F,2 | .F,2 z/ G,/ G,G,G, | %7
 G, C,2- C,2- C,/ z/ | F, B,,2 B,, B,,2 | B,,/B,,/ F,2- F, F,2 | C,D,>D, D,G,,G,, | %11
 G,, C,2- C,2- C,/ z/ | E,F,>F, F,G,G, | G, A,2- A, z z | B,,C,>C, C,C,<C, | %15
 C, [F,,F,]2- [F,,F,]3- | [F,,F,]3 z3 |] %17

